X: 30081
T: Oho! Oho! I've Found You Out
R: jig
M: 6/8
K: Amixolydian
|:E2A c2e|dBA G2F|E2A c2A|B2c dcd|
e2f gfe|dBA G2f|efe dcB|A3 A3:|
|:a2e cBA|dBA G2e|a2e cBA|B2c dcd|
e2f gfe|dBA G2f|efe dcB|A3 A3:|

